kora-light/actions/scalable/text-orientation-auto.svg

<svg xmlns="http://www.w3.org/2000/svg" style="fill-rule:evenodd;clip-rule:evenodd;stroke-linejoin:round;stroke-miterlimit:2" width="100%" height="100%" version="1.1" viewBox="0 0 16 16" xml:space="preserve">
 <defs>
  <style id="current-color-scheme" type="text/css">
   .ColorScheme-Text { color:#444444; } .ColorScheme-Highlight { color:#4285f4; } .ColorScheme-NeutralText { color:#ff9800; } .ColorScheme-PositiveText { color:#4caf50; } .ColorScheme-NegativeText { color:#f44336; }
  </style>
 </defs>
 <path style="fill:currentColor;" class="ColorScheme-Text" d="M2,1l0,11l-2,0l3,4l3,-4l-2,0l0,-11l-2,0Zm5,10l0,1l2,0l0,3l-2,0l0,1l5,0c2,0 2,-2.5 2,-2.5c0,0 0,-2.5 -2,-2.5l-5,0Zm3,1l1.5,0c1.5,0 1.5,1.5 1.5,1.5c0,0 0,1.5 -1.5,1.5l-1.5,0l0,-3Zm-1.5,-9c0,0 -0.5,0 -0.5,0.5c0,0.5 0.5,0.5 0.5,0.5l3,0l-1.5,1.25l0,0.75l-3.5,0c0,0 -0.5,0 -0.5,0.5c0,0.5 0.5,0.5 0.5,0.5l3.5,0l0,2l-1.5,0c0,0 -0.5,0 -0.5,0.5c0,0.5 0.5,0.5 0.5,0.5l1.5,0c0,0 1,0 1,-1l0,-2l3.5,0c0,0 0.5,0 0.5,-0.5c0,-0.5 -0.5,-0.5 -0.5,-0.5l-3.5,0l0,-0.25c0,0 2,-1.25 2,-1.75c0,-1 -1,-1 -1,-1l-3.5,0Zm1,-3c-0.5,0 -0.5,0.5 -0.5,0.5l0,0.5l-2.5,0c-0.5,0 -0.5,0.5 -0.5,0.5l0,1c0,0 0,0.5 0.5,0.5c0.5,0 0.5,-0.5 0.5,-0.5l0,-0.5l7,0l0,0.5c0,0 0,0.5 0.5,0.5c0.5,0 0.5,-0.5 0.5,-0.5l0,-1c0,0 0,-0.5 -0.5,-0.5l-4.5,0l0,-0.5c0,0 0,-0.5 -0.5,-0.5Z"/>
</svg>

<svg xmlns="http://www.w3.org/2000/svg" width="16" height="16" version="1.1">
 <defs>
  <style id="current-color-scheme" type="text/css">
   .ColorScheme-Text { color:#444444; } .ColorScheme-Highlight { color:#4285f4; }
  </style>
 </defs>
 <path style="fill:currentColor" class="ColorScheme-Text" d="M 2,1 V 12 H 0 L 3,16 6,12 H 4 V 1 Z M 7,11 V 12 H 9 V 15 H 7 V 16 H 12 C 14,16 14,13.5 14,13.5 14,13.5 14,11 12,11 Z M 10,12 H 11.5 C 13,12 13,13.5 13,13.5 13,13.5 13,15 11.5,15 H 10 Z M 8.5,3 C 8.5,3 8,3 8,3.5 8,4 8.5,4 8.5,4 H 11.5 L 10,5.25 V 6 H 6.5 C 6.5,6 6,6 6,6.5 6,7 6.5,7 6.5,7 H 10 V 9 H 8.5 C 8.5,9 8,9 8,9.5 8,10 8.5,10 8.5,10 H 10 C 10,10 11,10 11,9 V 7 H 14.5 C 14.5,7 15,7 15,6.5 15,6 14.5,6 14.5,6 H 11 V 5.75 C 11,5.75 13,4.5 13,4 13,3 12,3 12,3 Z M 9.5,0 C 9,0 9,0.5 9,0.5 V 1 H 6.5 C 6,1 6,1.5 6,1.5 V 2.5 C 6,2.5 6,3 6.5,3 7,3 7,2.5 7,2.5 V 2 H 14 V 2.5 C 14,2.5 14,3 14.5,3 15,3 15,2.5 15,2.5 V 1.5 C 15,1.5 15,1 14.5,1 H 10 V 0.5 C 10,0.5 10,0 9.5,0 Z"/>
</svg>
